symbols/web/camera_outdoor/materialsymbolssharp/camera_outdoor_wght700grad200_48px.svg

<svg xmlns="http://www.w3.org/2000/svg" height="48" width="48"><path d="M25.05 37.05V25.2h12.1v4.5l4-2.3v7.45l-4-2.3v4.5Zm-18.15 6V17.4L24 4.6l17.15 12.75v6.4h-4.6V19.7L24 10.3l-12.55 9.4v18.8h29.7v4.55ZM24 24.3Z"/></svg>

<svg xmlns="http://www.w3.org/2000/svg" height="48" width="48"><path d="M25.05 37.05V25.2H37.15V29.7L41.15 27.4V34.85L37.15 32.55V37.05ZM6.9 43.05V17.4L24 4.6L41.15 17.35V23.75H36.55V19.7L24 10.3L11.45 19.7V38.5H41.15V43.05ZM24 24.3Z"/></svg>
